svg/tooltip_remove_outline.svg

<svg xmlns="http://www.w3.org/2000/svg" viewBox="0 0 24 24"><path d="M20 2H4c-1.1 0-2 .9-2 2v12a2 2 0 0 0 2 2h4l4 4 4-4h4c1.11 0 2-.89 2-2V4a2 2 0 0 0-2-2m0 14h-4.83L12 19.17 8.83 16H4V4h16zM8.46 12.12 10.59 10 8.46 7.88l1.42-1.41L12 8.59l2.12-2.12 1.42 1.41L13.41 10l2.13 2.12-1.42 1.42L12 11.41l-2.12 2.13z"/></svg>

<?xml version="1.0" encoding="UTF-8"?><!DOCTYPE svg PUBLIC "-//W3C//DTD SVG 1.1//EN" "http://www.w3.org/Graphics/SVG/1.1/DTD/svg11.dtd"><svg xmlns="http://www.w3.org/2000/svg" xmlns:xlink="http://www.w3.org/1999/xlink" version="1.1" id="mdi-tooltip-remove-outline" width="24" height="24" viewBox="0 0 24 24"><path d="M20 2H4C2.9 2 2 2.9 2 4V16C2 17.11 2.9 18 4 18H8L12 22L16 18H20C21.11 18 22 17.11 22 16V4C22 2.9 21.11 2 20 2M20 16H15.17L12 19.17L8.83 16H4V4H20V16M8.46 12.12L10.59 10L8.46 7.88L9.88 6.47L12 8.59L14.12 6.47L15.54 7.88L13.41 10L15.54 12.12L14.12 13.54L12 11.41L9.88 13.54L8.46 12.12Z" /></svg>
